X:116
T:Man From Gleannt\'an, The
R:slide
H:Also played in Amix
D:Dennis Doody
Z:id:hn-slide-116
M:6/8
L:1/8
K:Gmix
d2G BAG | d2G BAG | d2G BAG | c2G e2G | 
d2G BAG | d2G BAG | ded cBA |1 G3 ABc :|2 G3 G2g ||
|: g2f d2e | f2d c2g | g2f d2e | g2e a2e | 
g2f d2g | f2d c2e | ded cBA |1 G3 G2g :|2 G3 ABc ||

